X: 130
T: Cantantibus organis – Allegro moderato
C: Franciszek Walczyński
%%abc-version 2.0
%%abcx-abcm2ps-target-version 5.9.1 (29 Sep 2008)
%%abc-creator hum2abc beta
%%abcx-conversion-date 2021/10/04 07:38:42
%%abc-edited-by Kamil Watkowski
%%abcx-initial-encoding-date 2021-08-09
%%humdrum-veritas 1993425556
%%humdrum-veritas-data 1021585014
%%linebreak <none>
%%barnumbers 0
L: 1/8
M: 2/4
N: Derived from pl-kozmzk--mzk-m-346--032_walczynski-franciszek--cantantibus-organis-allegro-moderato.krn
%%staves {1 2}
V: 1 clef=treble
V: 2 clef=bass
K: F
[V:1] z4 & z4 | 
[V:2] z4 & F,,E,,F,,G,, | 
[V:1] z4 & z4 | 
[V:2] F,E,F,G, & A,,3C, | 
[V:1] z4 & z4 | 
[V:2] A,G,A,B, & F,3G, | 
[V:1] z4 & C2D/E/F/G/ | 
[V:2] A,2B,/C/D/E/ & z4 | 
[V:1] x4 & A2z2 | 
[V:2] F2z2 & x4 | 
[V:1] [E4G4c4] & x4 | 
[V:2] C2B,2 & x4 | 
[V:1] !accent![C3F3c3][DGB] & x4 | 
[V:2] !accent!A,3G, & x4 | 
[V:1] A2G2 & F2E2 | 
[V:2] C2B,2 & C2C,^C, | 
[V:1] F2^F2 & D4- | 
[V:2] A,4 & D,2=C,2 | 
[V:1] G2^G2 & D4 | 
[V:2] G,2F,E,/D,/ & B,,4 | 
[V:1] !fermata!A4 & ^C4 | 
[V:2] E,4 & !fermata!A,,4 | 
[V:1] z4 & z4 | 
[V:2] x4 & A,,^G,,A,,=B,, | 
[V:1] z4 & z4 | 
[V:2] A,^G,A,=B, & ^C,3E, | 
[V:1] z4 & z4 | 
[V:2] ^C=B,CD & A,3B, | 
[V:1] ^C2D/E/=F/=G/ & E2^F/^G/A/=B/ | 
[V:2] x4 & x4 | 
[V:1] A2z2 & ^c2x2 | 
[V:2] x2z2 & x4 | 
[V:1] d4 & G2_A2 | 
[V:2] F4- & _B,2=B,2 | 
[V:1] c3A & =A3F | 
[V:2] F3C & C3C, | 
[V:1] G4 & F2=E2 | 
[V:2] D2C_B, & B,,2C,^C, | 
[V:1] F4 & F4 | 
[V:2] A,4 & D,4 | 
[V:1] G2AB & F4- | 
[V:2] D4 & B,,2A,,G,, | 
[V:1] A3G & F3E | 
[V:2] C3B, & C,4 | 
[V:1] FEFG & F z z C | 
[V:2] A, zz2 & F,, zz2 | 
[V:1] FEFG & AG AB | 
[V:2] z4 & z4 | 
[V:1] c2d/e/f/g/ & A2B/c/d/e/ | 
[V:2] z4 & z4 | 
[V:1] a2!fermata!z2 & f2z2 | 
[V:2] !fermata!z4 & z4 | 
[V:1] B2G2 & D2E2 | 
[V:2] G,2CB, & z4 | 
[V:1] !accent!c4 & F4 | 
[V:2] A,4 & z4 | 
[V:1] B2G2 & D2E2 | 
[V:2] B,4 & G,,2C,2 | 
[V:1] ^F4 & D4 | 
[V:2] A,4 & D,4 | 
[V:1] G2E2 & D2B,2 | 
[V:2] G,4 & B,,2C,2 | 
[V:1] F4- & C4 | 
[V:2] A,4 & F,,4 | 
[V:1] F4- & C4- | 
[V:2] A,4- & F,,E,,F,,G,, | 
[V:1] F4- & C4- | 
[V:2] A,4- & A,,G,,A,,B,, | 
[V:1] F3E & C2B,2 | 
[V:2] A,2G,2 & C,2_D,C, | 
[V:1] !fermata!F4 & C4 |]  
[V:2] A,4 & !fermata![F,,4C,4] |]  


